X: 421	% 120
T: Mountain Jig Quadrille
S: Viola Ruth "Pioneer Western Folk Tunes" 1948 p.42 #1
R: march, reel
Z: 2019 John Chambers <jc:trillian.mit.edu>
N: Add "pickup" rest to 2nd strain to fix the rhythm.
N: Should that first f# note be a g, to match bar 5?
M: 2/4
L: 1/16
K: G
V: 1 name="120"
(Bc) |\
d2f2B2d2 | G2B2D2G2 |\
FGAB c2(BA) | GABc d2(Bc) |\
d2g2B2d2 | G2B2D2G2 |\
FGAB cAFD | G2G2 G2 :|
|: z2 |\
(3([FA,][FA,][FA,])[F2A,2] (3([AF][AF][FA])[A2F2] | dAdf a4 |\
gfge cABc | fefd A4 |\
(3([FA,][FA,][FA,])[F2A,2] (3([AF][AF][FA])[A2F2] | dAdf a4 |\
gfge cABc | d2f2 d2 :|
